logos/kaios.svg

<?xml version="1.0" encoding="UTF-8"?>
<svg width="512px" height="134px" viewBox="0 0 512 134" version="1.1" xmlns="http://www.w3.org/2000/svg" xmlns:xlink="http://www.w3.org/1999/xlink" preserveAspectRatio="xMidYMid">
    <g fill-rule="evenodd">
        <path d="M15.4373424,0.307268139 C6.91133,0.307268139 0,7.21859813 0,15.7446105 L0,117.887729 C0,126.413742 6.91133,133.326184 15.4373424,133.326184 C23.9644668,133.326184 30.8757968,126.413742 30.8757968,117.887729 L30.8757968,15.7446105 C30.8757968,7.21859813 23.9644668,0.307268139 15.4373424,0.307268139 M66.5511593,47.6357001 C61.7560418,40.7877564 52.3170444,39.1230322 45.4691007,43.9181496 C38.621157,48.7132671 36.9564328,58.1522645 41.7515502,65.0002082 L85.0733013,126.869678 C89.8684187,133.717622 99.3063041,135.381234 106.15536,130.587229 C113.003304,125.790999 114.668028,116.353114 109.87291,109.50517 L66.5511593,47.6357001 M86.2976575,41.0691026 C97.5537287,41.0691026 106.678019,31.9448125 106.678019,20.6887414 C106.678019,9.43267022 97.5537287,0.307268139 86.2976575,0.307268139 C75.0415864,0.307268139 65.9161843,9.43267022 65.9161843,20.6887414 C65.9161843,31.9448125 75.0415864,41.0691026 86.2976575,41.0691026 M165.076811,106.569384 C154.404561,106.569384 145.720639,97.8865738 145.720639,87.2132117 C145.720639,76.5398496 154.404561,67.8581516 165.076811,67.8581516 C175.750173,67.8581516 184.432983,76.5398496 184.432983,87.2132117 C184.432983,97.8865738 175.750173,106.569384 165.076811,106.569384 Z M165.076811,41.1013517 C190.544756,41.1013517 211.189783,61.7463785 211.189783,87.2132117 C211.189783,87.9060128 211.167542,88.5943656 211.137517,89.2793824 L211.137517,119.990597 C211.137517,127.35564 205.166973,133.326184 197.801931,133.326184 C193.352658,133.326184 189.422708,131.138801 186.999572,127.789335 C180.47968,131.320063 173.01233,133.326184 165.076811,133.326184 C139.609978,133.326184 118.964951,112.680045 118.964951,87.2132117 C118.964951,61.7463785 139.609978,41.1013517 165.076811,41.1013517 Z M240.707779,41.1013517 C249.188198,41.1013517 256.06283,47.9759844 256.06283,56.4575152 L256.06283,117.968908 C256.06283,126.450439 249.188198,133.326184 240.707779,133.326184 C232.226248,133.326184 225.351615,126.450439 225.351615,117.968908 L225.351615,56.4575152 C225.351615,47.9759844 232.226248,41.1013517 240.707779,41.1013517 Z M337.097201,104.519894 C316.307609,104.519894 299.39459,87.6057619 299.39459,66.8161699 C299.39459,46.0265779 316.307609,29.1135581 337.097201,29.1135581 C357.886793,29.1135581 374.799813,46.0265779 374.799813,66.8161699 C374.799813,87.6057619 357.886793,104.519894 337.097201,104.519894 Z M337.097201,0.307268139 C300.365401,0.307268139 270.5883,30.0843692 270.5883,66.8161699 C270.5883,103.547971 300.365401,133.326184 337.097201,133.326184 C373.830114,133.326184 403.606103,103.547971 403.606103,66.8161699 C403.606103,30.0843692 373.830114,0.307268139 337.097201,0.307268139 Z M470.96794,50.3868876 L452.841684,50.3868876 C447.055739,50.3868876 442.346248,45.6762852 442.346248,39.8881159 C442.346248,33.5672792 448.20114,29.8041351 453.983749,29.3481986 C461.103031,28.7832822 480.612665,29.1880648 487.528443,29.38712 C495.446169,29.6762505 502.245183,23.305372 502.476488,15.2842259 C502.710016,7.25974362 496.39474,0.569709632 488.374705,0.336181185 C485.674672,0.256114289 461.667947,-0.401101484 451.704067,0.373990553 C429.802435,2.09431678 413.283077,19.0807312 413.283077,39.8881159 C413.283077,61.7018969 431.029015,79.4500589 452.841684,79.4500589 L470.96794,79.4500589 C477.455582,79.4500589 482.936829,85.0525175 482.936829,91.6836134 C482.936829,99.2933046 476.373567,103.19879 469.865908,103.692536 C461.513374,104.328623 436.46022,103.884919 427.51608,103.654726 C419.489374,103.459007 412.826029,109.795413 412.621413,117.816559 C412.421246,125.839929 418.758763,132.50661 426.783246,132.711225 C428.982861,132.764603 442.230596,133.087095 454.465263,133.087095 C461.383265,133.087095 467.976552,132.983675 472.067748,132.673416 C495.205969,130.914168 512,113.677545 512,91.6836134 C512,68.9123657 493.592398,50.3868876 470.96794,50.3868876" fill="#5E3580"></path>
    </g>
</svg>

<svg width="512" height="134" xmlns="http://www.w3.org/2000/svg" preserveAspectRatio="xMidYMid">
	<path d="M15.437.307C6.911.307 0 7.22 0 15.745v102.143c0 8.526 6.911 15.438 15.437 15.438 8.527 0 15.439-6.912 15.439-15.438V15.745c0-8.526-6.912-15.438-15.439-15.438m51.114 47.329c-4.795-6.848-14.234-8.513-21.082-3.718-6.848 4.795-8.513 14.234-3.717 21.082l43.321 61.87c4.795 6.848 14.233 8.511 21.082 3.717 6.848-4.796 8.513-14.234 3.718-21.082L66.55 47.635m19.747-6.566c11.256 0 20.38-9.124 20.38-20.38 0-11.256-9.124-20.382-20.38-20.382-11.256 0-20.382 9.126-20.382 20.382 0 11.256 9.126 20.38 20.382 20.38m78.779 65.5c-10.672 0-19.356-8.682-19.356-19.356 0-10.673 8.684-19.355 19.356-19.355 10.673 0 19.356 8.682 19.356 19.355 0 10.674-8.683 19.356-19.356 19.356Zm0-65.468c25.468 0 46.113 20.645 46.113 46.112 0 .693-.022 1.381-.052 2.066v30.712c0 7.365-5.971 13.335-13.336 13.335-4.45 0-8.38-2.187-10.802-5.537a45.9 45.9 0 0 1-21.923 5.537c-25.467 0-46.112-20.646-46.112-46.113s20.645-46.112 46.112-46.112Zm75.63 0c8.481 0 15.356 6.875 15.356 15.357v61.51c0 8.482-6.875 15.358-15.355 15.358-8.482 0-15.356-6.876-15.356-15.357V56.458c0-8.482 6.874-15.357 15.356-15.357Zm96.39 63.419c-20.79 0-37.702-16.914-37.702-37.704s16.913-37.702 37.702-37.702c20.79 0 37.703 16.913 37.703 37.702 0 20.79-16.913 37.704-37.703 37.704Zm0-104.213c-36.732 0-66.509 29.777-66.509 66.51 0 36.731 29.777 66.51 66.51 66.51 36.732 0 66.508-29.779 66.508-66.51 0-36.733-29.776-66.51-66.509-66.51Zm133.87 50.08h-18.125c-5.786 0-10.496-4.71-10.496-10.499 0-6.32 5.855-10.084 11.638-10.54 7.119-.565 26.629-.16 33.544.04 7.918.288 14.717-6.083 14.948-14.104C502.71 7.26 496.395.57 488.375.336c-2.7-.08-26.707-.737-36.67.038-21.903 1.72-38.422 18.707-38.422 39.514 0 21.814 17.746 39.562 39.559 39.562h18.126c6.488 0 11.969 5.603 11.969 12.234 0 7.61-6.563 11.515-13.071 12.009-8.353.636-33.406.192-42.35-.038-8.027-.196-14.69 6.14-14.895 14.162-.2 8.023 6.138 14.69 14.162 14.894 2.2.054 15.448.376 27.682.376 6.918 0 13.512-.103 17.603-.414C495.206 130.914 512 113.678 512 91.683c0-22.77-18.408-41.296-41.032-41.296" fill="#5E3580" fill-rule="evenodd"/>
</svg>
